X:167
T: DIE FRAU SIE WOLLT ZUM REIGEN GEHN
N: Z0166
O: Europa, Mitteleuropa, Deutschland, Nord - Deutschland
R: Erzaehlung, lustige Romanze
M: 2/4
L: 1/16
K: A
E2 | A2A2A3A | A2GFE2z2
A4e2e2 | c4z2
c2 | B2c2d2B2 | c2d2e2z2
A2AAA2G2 | F2E2E2
c2 | B2c2d2B2 | c2d2e2z2
A3AG2F2 | E4z2

